app/dist/common/images/united-nova-technology-coltd.svg

<svg height="18" viewBox="0 0 18 18" width="18" xmlns="http://www.w3.org/2000/svg"><path d="m0 0h18v18h-18z" fill="#f0f3fa"/><path d="m5 12a3 3 0 1 0 0-6 3 3 0 0 0 0 6zm-1.5-5h.9v2.48c0 .37.23.67.5.67h.2c.27 0 .5-.3.5-.67v-2.48h.9v2.84c0 .64-.48 1.16-1.08 1.16h-.84c-.6 0-1.08-.52-1.08-1.16z" fill="#f00"/><path d="m9 7v4h1v-2.88l1.38 2.88h1.26v-4h-1v2.68l-1.25-2.68zm7 0h-3v.84h1v3.16h1v-3.16h1z"/></svg>

<!-- by TradingView --><svg width="18" height="18" viewBox="0 0 18 18" xmlns="http://www.w3.org/2000/svg"><path fill="#F0F3FA" d="M0 0h18v18H0z"/><path d="M5 12a3 3 0 1 0 0-6 3 3 0 0 0 0 6ZM3.5 7h.9v2.48c0 .37.23.67.5.67h.2c.27 0 .5-.3.5-.67V7h.9v2.84c0 .64-.48 1.16-1.08 1.16h-.84c-.6 0-1.08-.52-1.08-1.16V7Z" fill="red"/><path d="M9 7v4h1V8.12L11.38 11h1.26V7h-1v2.68L10.39 7H9ZM16 7h-3v.84h1V11h1V7.84h1V7Z"/></svg>
